!! 00000] TT[WS
!!!OTL: Biandan ge
!!!ARE: Asia, China, Shanxi Yuencheng
!! Ethnic Group: Han
!! WII, 178 (3)
!!!SCT: J0671
!!!YEM: Copyright 1995, estate of Helmut Schaffrath.
**kern
*ICvox
*Ivox
*M2/4
*k[f#]
*G:
{4g
4d
=1
4g
4d
=2
8.dd
16gg
8dd
8b
=3
8dd
4a
8g
=4
2a}
=5
{8dd
8gg
8dd
8gg
=6
8dd
8gg
8dd
8gg
=7
8dd
4a
8g
=8
2a}
=9
{4dd
8.a
16a
=10
4dd
8.a
16a
=11
8.g
16f#
8g
8a
=12
2d}
=13
{8g
8a
8.g
16a
=14
8d
8B
4d
=15
8g
8a
8.g
16a
=16
16d
16e
16d
16B
4d}
=17
{8.g
16a
8dd
16gg
16ee
=18
8dd
8b
8a
8g
=19
8g
8f#
8g
8a
=20
2d}
==
!!!AGN: Xiaodiao. Laodong, Fengsu
!!!ONB: ESAC (Essen Associative Code) Database: CHINA
!!!AMT: simple duple
!!!AIN: vox
!!!EED: Helmut Schaffrath
!!!EEV: 1.0
*-
